icon-svg/nanoleaf-bulb.svg

<svg xmlns="http://www.w3.org/2000/svg" fill="#44739e" viewBox="0 0 24 24"><path d="M11.381 22h1.567l.446-.62h-2.612ZM9.8 17.908v2.574a.724.724 0 0 0 .724.724H13.6a.833.833 0 0 0 .832-.833v-2.5a21.3 21.3 0 0 1-2.372.142 21.6 21.6 0 0 1-2.26-.107m5.348-11.074a.341.341 0 0 0 .5-.119l.009-.016.013-.027.682-1.63a.338.338 0 0 0-.028-.316l-.631-.977a.36.36 0 0 0-.042-.053l-.231-.236a.34.34 0 0 0-.244-.1H14.17a.341.341 0 0 0-.341.346l.031 2.034a.343.343 0 0 0 .14.272ZM12.252 10.7l2.42.085-.272-1.211a.725.725 0 0 0-.291-.432l-1.721-1.191a.94.94 0 0 0-.768-.007l-.016.007-1.715 1.191a.723.723 0 0 0-.292.432l-.277 1.211 2.416-.085q.258-.009.516 0M9.98 3.206a.338.338 0 0 1 .337.342l-.029 1.866a.34.34 0 0 0 .045.173l1.083 1.883a.337.337 0 0 0 .313.168l.244-.015a.3.3 0 0 1 .042 0l.249.016a.336.336 0 0 0 .312-.169l1.084-1.883a.34.34 0 0 0 .044-.173l-.028-1.866a.336.336 0 0 1 .336-.342h1.16l-1.01-1.033a.333.333 0 0 0-.216-.1h-.052a26.2 26.2 0 0 0-3.8 0h-.048a.338.338 0 0 0-.216.1L8.82 3.206Zm3.726 2.603L12.7 7.565a.374.374 0 0 0 .111.493l.8.558.416.288a.374.374 0 0 0 .544-.133l.675-1.285a.374.374 0 0 0-.113-.478L13.866 6.1a.374.374 0 0 1-.156-.3Zm3.072 2.817.761-1.148a.21.21 0 0 0 .025-.179l-.336-1.063a.2.2 0 0 0-.021-.048l-.484-.779a.21.21 0 0 0-.372.029l-.5 1.184a.21.21 0 0 0-.007.142l.556 1.807a.21.21 0 0 0 .378.055m-1.469 2.216 1.116-1.683-.709-2.246-.04.077-.115.218-.037.081-.004-.002-.717 1.364-.323.616.014.059.335 1.468zm2.366-3.296-1.084 1.636-.719 1.084-.391.589.392.029 1.838-2.673a.2.2 0 0 0 .035-.148zm-2.292-4.34.129.131.019.02.263.269v.007l.794 1.229.766 1.285.346 1.086V6.019a.4.4 0 0 0-.059-.209L16.242 3.5a.54.54 0 0 0-.182-.184L14.6 2.4l.137.14Zm1.401 7.756a.175.175 0 0 0 .171-.1l.619-1.237a.47.47 0 0 0 .048-.176l.062-.855-1.636 2.3zM9.842 3.357H8.808a.32.32 0 0 0-.23.1l-.239.243a.33.33 0 0 0-.04.05l-.637.986a.321.321 0 0 0-.027.3l.687 1.64.012.025.02.037a.321.321 0 0 0 .472.112L10 6.006a.324.324 0 0 0 .134-.256l.031-2.067a.321.321 0 0 0-.323-.326m-.981 3.651a.375.375 0 0 0-.114.478l.675 1.285a.375.375 0 0 0 .545.133l.052-.036 1.166-.81a.372.372 0 0 0 .111-.493l-1.01-1.756v-.008a.374.374 0 0 1-.156.3zm-1.64-1.521-.432.7a.3.3 0 0 0-.027.059l-.327 1.031a.26.26 0 0 0 .031.22l.692 1.044a.257.257 0 0 0 .461-.066l.52-1.694a.252.252 0 0 0-.009-.175l-.453-1.082a.258.258 0 0 0-.456-.037m1.416 5.285a.136.136 0 0 0 .129.061l.3-.029a.141.141 0 0 0 .122-.107L9.5 9.326v-.009a.138.138 0 0 0-.013-.1l-.3-.57-.715-1.36-.038-.081a.139.139 0 0 0-.255.023L7.587 9.1a.143.143 0 0 0 .017.119Zm-.517.112.391-.029L6.579 7.94l-.261-.394L6.255 8a.385.385 0 0 0 .065.272ZM6.632 6.151v-.007L7.4 4.906a.033.033 0 0 0 0-.029.032.032 0 0 1 0-.03l.785-1.214v-.007l.411-.42.456-.466.143-.147a.032.032 0 0 0-.04-.049l-1.252.781a.46.46 0 0 0-.156.158L6.352 5.8a.43.43 0 0 0-.064.226v1.2zM6.308 8.6l.059.815a.67.67 0 0 0 .07.252l.589 1.179a.213.213 0 0 0 .207.116l.711-.062ZM7.7 11.221l-.27.007 2.485 6.34.1.007a28.85 28.85 0 0 0 4.37-.007l2.315-6.344a62.4 62.4 0 0 0-9-.003"/></svg>

<?xml version="1.0" encoding="UTF-8"?>
<svg width="24px" fill="#44739e" height="24px" viewBox="0 0 24 24" version="1.1" xmlns="http://www.w3.org/2000/svg" xmlns:xlink="http://www.w3.org/1999/xlink">
            <path d="m 11.381,22 h 1.567 l 0.446,-0.62 H 10.782 Z M 9.8,17.908 v 2.574 a 0.724,0.724 0 0 0 0.724,0.724 H 13.6 a 0.833,0.833 0 0 0 0.832,-0.833 v -2.5 A 21.328,21.328 0 0 1 12.06,18.015 21.553,21.553 0 0 1 9.8,17.908 Z M 15.148,6.834 a 0.341,0.341 0 0 0 0.5,-0.119 L 15.657,6.699 15.67,6.672 16.352,5.042 A 0.338,0.338 0 0 0 16.324,4.726 L 15.693,3.749 A 0.362,0.362 0 0 0 15.651,3.696 L 15.42,3.46 A 0.34,0.34 0 0 0 15.176,3.36 H 14.17 A 0.341,0.341 0 0 0 13.829,3.706 L 13.86,5.74 A 0.343,0.343 0 0 0 14,6.012 Z M 12.252,10.7 14.672,10.785 14.4,9.574 A 0.725,0.725 0 0 0 14.109,9.142 L 12.388,7.951 A 0.939,0.939 0 0 0 11.62,7.944 L 11.604,7.951 9.889,9.142 A 0.723,0.723 0 0 0 9.597,9.574 L 9.32,10.785 11.736,10.7 q 0.258,-0.009 0.516,0 z M 9.98,3.206 a 0.338,0.338 0 0 1 0.337,0.342 l -0.029,1.866 a 0.341,0.341 0 0 0 0.045,0.173 l 1.083,1.883 a 0.337,0.337 0 0 0 0.313,0.168 l 0.244,-0.015 a 0.294,0.294 0 0 1 0.042,0 l 0.249,0.016 A 0.336,0.336 0 0 0 12.576,7.47 L 13.66,5.587 A 0.34,0.34 0 0 0 13.704,5.414 L 13.676,3.548 a 0.336,0.336 0 0 1 0.336,-0.342 h 1.16 l -1.01,-1.033 a 0.333,0.333 0 0 0 -0.216,-0.1 h -0.052 a 26.194,26.194 0 0 0 -3.8,0 H 10.046 A 0.338,0.338 0 0 0 9.83,2.173 L 8.82,3.206 Z M 13.706,5.809 12.7,7.565 a 0.374,0.374 0 0 0 0.111,0.493 l 0.8,0.558 0.416,0.288 A 0.374,0.374 0 0 0 14.571,8.771 L 15.246,7.486 A 0.374,0.374 0 0 0 15.133,7.008 L 13.866,6.1 A 0.374,0.374 0 0 1 13.71,5.8 Z m 3.072,2.817 0.761,-1.148 A 0.21,0.21 0 0 0 17.564,7.299 L 17.228,6.236 A 0.206,0.206 0 0 0 17.207,6.188 L 16.723,5.409 a 0.21,0.21 0 0 0 -0.372,0.029 l -0.5,1.184 A 0.21,0.21 0 0 0 15.844,6.764 L 16.4,8.571 a 0.21,0.21 0 0 0 0.378,0.055 z M 15.309,10.842 16.425,9.159 15.716,6.913 15.676,6.99 15.561,7.208 15.524,7.289 15.52,7.287 14.803,8.651 14.48,9.267 l 0.014,0.059 0.335,1.468 z m 2.366,-3.296 -1.084,1.636 -0.719,1.084 -0.391,0.589 0.392,0.029 1.838,-2.673 a 0.2,0.2 0 0 0 0.035,-0.148 z m -2.292,-4.34 0.129,0.131 0.019,0.02 0.263,0.269 v 0 0.007 l 0.794,1.229 0.766,1.285 0.346,1.086 v 0 -1.214 A 0.4,0.4 0 0 0 17.641,5.81 L 16.242,3.5 A 0.543,0.543 0 0 0 16.06,3.316 L 14.6,2.4 14.737,2.54 Z m 1.401,7.756 a 0.175,0.175 0 0 0 0.171,-0.1 l 0.619,-1.237 a 0.471,0.471 0 0 0 0.048,-0.176 l 0.062,-0.855 -1.636,2.3 z M 9.842,3.357 H 8.808 a 0.32,0.32 0 0 0 -0.23,0.1 L 8.339,3.7 A 0.325,0.325 0 0 0 8.299,3.75 L 7.662,4.736 a 0.321,0.321 0 0 0 -0.027,0.3 l 0.687,1.64 0.012,0.025 0.02,0.037 A 0.321,0.321 0 0 0 8.826,6.85 L 10,6.006 A 0.324,0.324 0 0 0 10.134,5.75 L 10.165,3.683 A 0.321,0.321 0 0 0 9.842,3.357 Z M 8.861,7.008 A 0.375,0.375 0 0 0 8.747,7.486 l 0.675,1.285 a 0.375,0.375 0 0 0 0.545,0.133 l 0.052,-0.036 1.166,-0.81 A 0.372,0.372 0 0 0 11.296,7.565 L 10.286,5.809 V 5.801 a 0.374,0.374 0 0 1 -0.156,0.3 z M 7.221,5.487 6.789,6.187 A 0.315,0.315 0 0 0 6.762,6.246 L 6.435,7.277 a 0.26,0.26 0 0 0 0.031,0.22 L 7.158,8.541 A 0.257,0.257 0 0 0 7.619,8.475 L 8.139,6.781 A 0.252,0.252 0 0 0 8.13,6.606 L 7.677,5.524 A 0.258,0.258 0 0 0 7.221,5.487 Z m 1.416,5.285 a 0.136,0.136 0 0 0 0.129,0.061 l 0.3,-0.029 A 0.141,0.141 0 0 0 9.188,10.697 L 9.5,9.326 V 9.317 a 0.138,0.138 0 0 0 -0.013,-0.1 l -0.3,-0.57 -0.715,-1.36 v 0 L 8.434,7.206 A 0.139,0.139 0 0 0 8.179,7.229 L 7.587,9.1 A 0.143,0.143 0 0 0 7.604,9.219 Z M 8.12,10.884 8.511,10.855 6.579,7.94 6.318,7.546 6.255,8 A 0.385,0.385 0 0 0 6.32,8.272 Z M 6.632,6.151 V 6.144 L 7.4,4.906 a 0.033,0.033 0 0 0 0,-0.029 0.032,0.032 0 0 1 0,-0.03 L 8.185,3.633 v -0.007 0 L 8.596,3.206 9.052,2.74 9.195,2.593 A 0.032,0.032 0 0 0 9.155,2.544 L 7.903,3.325 A 0.463,0.463 0 0 0 7.747,3.483 L 6.352,5.8 A 0.429,0.429 0 0 0 6.288,6.026 v 1.2 0 z M 6.308,8.6 6.367,9.415 a 0.668,0.668 0 0 0 0.07,0.252 l 0.589,1.179 a 0.213,0.213 0 0 0 0.207,0.116 L 7.944,10.9 Z M 7.7,11.221 v 0 l -0.27,0.007 2.485,6.34 0.1,0.007 a 28.845,28.845 0 0 0 4.37,-0.007 L 16.7,11.224 a 62.431,62.431 0 0 0 -9,-0.003 z"/>

</svg>
